src/img/icons/stars-9.svg

<svg width="115" height="20" viewBox="0 0 115 20" fill="none" xmlns="http://www.w3.org/2000/svg">
<path d="M9.5 0.5L11.6329 7.06434H18.535L12.9511 11.1213L15.084 17.6857L9.5 13.6287L3.91604 17.6857L6.04892 11.1213L0.464963 7.06434H7.36712L9.5 0.5Z" fill="#FFC632"/>
<path d="M33.5 0.5L35.6329 7.06434H42.535L36.9511 11.1213L39.084 17.6857L33.5 13.6287L27.916 17.6857L30.0489 11.1213L24.465 7.06434H31.3671L33.5 0.5Z" fill="#FFC632"/>
<path d="M57.5 0.5L59.6329 7.06434H66.535L60.9511 11.1213L63.084 17.6857L57.5 13.6287L51.916 17.6857L54.0489 11.1213L48.465 7.06434H55.3671L57.5 0.5Z" fill="#FFC632"/>
<path d="M81.5 0.5L83.6329 7.06434H90.535L84.9511 11.1213L87.084 17.6857L81.5 13.6287L75.916 17.6857L78.0489 11.1213L72.465 7.06434H79.3671L81.5 0.5Z" fill="#FFC632"/>
<path d="M105.5 0.5L107.633 7.06434H114.535L108.951 11.1213L111.084 17.6857L105.5 13.6287L99.916 17.6857L102.049 11.1213L96.465 7.06434H103.367L105.5 0.5Z" fill="url(#paint0_linear_689_1078)"/>
<defs>
<linearGradient id="paint0_linear_689_1078" x1="105.5" y1="7.5" x2="105.5" y2="7.5" gradientUnits="userSpaceOnUse">
<stop stop-color="#FFC632"/>
<stop offset="1" stop-color="#DDDDDD"/>
</linearGradient>
</defs>
</svg>

<svg width="115" height="20" viewBox="0 0 115 20" fill="none" xmlns="http://www.w3.org/2000/svg"><path d="M9.5.5l2.133 6.564h6.902l-5.584 4.057 2.133 6.565L9.5 13.629l-5.584 4.057 2.133-6.565L.465 7.064h6.902L9.5.5zM33.5.5l2.133 6.564h6.902l-5.584 4.057 2.133 6.565-5.584-4.057-5.584 4.057 2.133-6.565-5.584-4.057h6.902L33.5.5zM57.5.5l2.133 6.564h6.902l-5.584 4.057 2.133 6.565-5.584-4.057-5.584 4.057 2.133-6.565-5.584-4.057h6.902L57.5.5zM81.5.5l2.133 6.564h6.902l-5.584 4.057 2.133 6.565-5.584-4.057-5.584 4.057 2.133-6.565-5.584-4.057h6.902L81.5.5z" fill="#FFC632"/><path d="M105.5.5l2.133 6.564h6.902l-5.584 4.057 2.133 6.565-5.584-4.057-5.584 4.057 2.133-6.565-5.584-4.057h6.902L105.5.5z" fill="url(#a)"/><defs><linearGradient id="a" x1="105.5" y1="7.5" x2="105.5" y2="7.5" gradientUnits="userSpaceOnUse"><stop stop-color="#FFC632"/><stop offset="1" stop-color="#DDD"/></linearGradient></defs></svg>
